!!!COM: Palestrina, Giovanni Perluigi da
!!!OPR: Petra sancta
!!!OTL: Kyrie
**kern	**kern	**kern	**kern	**kern
*Ibass	*Itenor	*Itenor	*Icalto	*Icant
!Bassus	!Tenor 2	!Tenor 1	!Altus	!Cantus
*clefF4	*clefGv2	*clefGv2	*clefG2	*clefG2
*k[]	*k[]	*k[]	*k[]	*k[]
*A:aeo	*A:aeo	*A:aeo	*A:aeo	*A:aeo
*M4/2	*M4/2	*M4/2	*M4/2	*M4/2
=1	=1	=1	=1	=1
0r	1e	0r	0r	0r
.	2e	.	.	.
.	2e	.	.	.
=2	=2	=2	=2	=2
0r	2d	0r	1a	0r
.	2c	.	.	.
.	1f	.	2a	.
.	.	.	2a	.
=3	=3	=3	=3	=3
0r	1e	0r	2g	1ee
.	.	.	2g	.
.	2.a	.	2.cc	2ee
.	.	.	.	2ee
.	4g	.	4b	.
=4	=4	=4	=4	=4
0r	2f	0r	2a	2dd
.	2.e	.	2g	2cc
.	.	.	1a	1ff
.	4d	.	.	.
.	[2d	.	.	.
=5	=5	=5	=5	=5
1A	2d]	0r	2r	1ee
.	4c	.	1e	.
.	4B	.	.	.
2A	4c	.	.	2r
.	4d	.	.	.
2A	4e	.	2c	2a
.	4f	.	.	.
=6	=6	=6	=6	=6
2G	2g	0r	2d	2b
2F	2c	.	2.f	2a
1B-	1d	.	.	2f
.	.	.	4e	.
.	.	.	[2d	2g
=7	=7	=7	=7	=7
0A	1r	1e	2d]	1a
.	.	.	4c	.
.	.	.	4B	.
.	2r	2e	4c	2r
.	.	.	4A	.
.	2c	2e	[2a	2ee
=8	=8	=8	=8	=8
0r	2d	2d	4a]	2ff
.	.	.	4b	.
.	1A	2c	1cc	2ee
.	.	1f	.	2cc
.	[2a	.	4b	2dd
.	.	.	4a	.
=9	=9	=9	=9	=9
1r	2a]	2e	1b	2.ee
.	2g#	2e	.	.
.	.	.	.	4dd
1A	2.a	2f	1a	2.cc
.	.	2e	.	.
.	8g	.	.	4b
.	8f	.	.	.
=10	=10	=10	=10	=10
2A	2e	4c	2r	1a
.	.	4d	.	.
2A	2c	4e	2a	.
.	.	4f	.	.
2G	2d	2g	2b-	1r
2F	[2f	2c	2a	.
=11	=11	=11	=11	=11
1B-	4f]	1d	2f	1r
.	4e	.	.	.
.	1d	.	2g	.
1A	.	1e	[1a	1ee
.	4c#	.	.	.
.	4B	.	.	.
=12	=12	=12	=12	=12
2r	1c#	2A	1a]	2ee
2A	.	4e	.	2ee
.	.	4f	.	.
2B-	2d	4g	1r	2dd
.	.	8f	.	.
.	.	8g	.	.
2A	[2e	2a	.	2cc
=13	=13	=13	=13	=13
2.F	4e]	1a	1r	1ff
.	4d	.	.	.
.	1d	.	.	.
4G	.	.	.	.
1A	.	2r	1a	1ee
.	4c#	[2e	.	.
.	4B	.	.	.
=14	=14	=14	=14	=14
0r	2c#	2e]	2a	2r
.	2d	2f	2a	2a
.	2G	2d	2g	2b-
.	[2d	[2f	2f	2a
=15	=15	=15	=15	=15
0r	2d]	4f]	1b-	2f
.	.	4e	.	.
.	2G	1d	.	2g
.	1A	.	1a	2e
.	.	2c	.	[2a
=16	=16	=16	=16	=16
1E	0e	1.B	1r	2a]
.	.	.	.	4g
.	.	.	.	4f#
2E	.	.	2r	2.g
2E	.	2B	2e	.
.	.	.	.	4a
=17	=17	=17	=17	=17
2D	0r	2d	2f	4b
.	.	.	.	4a
2C	.	2G	2e	2.cc
1F	.	1A	2c	.
.	.	.	.	4b
.	.	.	2d	[2a
=18	=18	=18	=18	=18
1E	2r	1B	2.e	2a]
.	2e	.	.	2g#
.	.	.	4d	.
2r	2e	2A	4c	1a
.	.	.	4B	.
2A	2e	2c	2A	.
=19	=19	=19	=19	=19
2B-	2d	2d	1r	0r
1A	2c	1e	.	.
.	1f	.	1a	.
2F	.	[2d	.	.
=20	=20	=20	=20	=20
2G	1e	2d]	2b-	0r
2A	.	2c#	2a	.
1D	2.d	2d	4f	.
.	.	.	4g	.
.	.	2f	4a	.
.	4c	.	4f	.
=21	=21	=21	=21	=21
0E	2B	0e	2g	1ee
.	2A	.	1a	.
.	1B	.	.	2ee
.	.	.	2g#	2ee
=22	=22	=22	=22	=22
2.F	[0A	2r	2.a	2dd
.	.	2.a	.	2cc
4E	.	.	4g	.
[1D	.	.	4f	[1ff
.	.	4g	4e	.
.	.	4f	2d	.
.	.	4e	.	.
=23	=23	=23	=23	=23
2D]	1A_	2d	0a	2ff]
2C#	.	2e	.	2ee
1D	1A_	1f	.	1dd
=24	=24	=24	=24	=24
0A	0A]	0e	0a	0cc#
=25	=25	=25	=25	=25
0r	0r	0r	1d	0r
.	.	.	[1a	.
=26	=26	=26	=26	=26
0r	1r	0r	2a]	0r
.	.	.	2g	.
.	1A	.	2a	.
.	.	.	2cc	.
=27	=27	=27	=27	=27
0r	1.d	1r	2b	0r
.	.	.	2.a	.
.	.	1A	.	.
.	.	.	4g	.
.	2c	.	2e	.
=28	=28	=28	=28	=28
1D	2d	1.d	2f	0r
.	2f	.	2d	.
[1A	1e	.	2r	.
.	.	2c	2e	.
=29	=29	=29	=29	=29
2A]	2r	2A	2cc	0r
2G	2e	2B	2.b	.
2A	2f	1c	.	.
.	.	.	4a	.
2c	[2e	.	[2a	.
=30	=30	=30	=30	=30
1B-	4e]	2.d	2a]	1r
.	4d	.	.	.
.	1d	.	2g	.
.	.	4e	.	.
1A	.	4f	2f	1a
.	.	4g	.	.
.	2c	[2a	2e	.
=31	=31	=31	=31	=31
1r	1B-	2a]	1d	1.dd
.	.	2g	.	.
1A	2A	[1a	1e	.
.	2e	.	.	2cc
=32	=32	=32	=32	=32
1.d	2f	1a]	1r	2dd
.	2d	.	.	2ff
.	1e	1A	2r	1ee
2c	.	.	[2a	.
=33	=33	=33	=33	=33
2d	2f	1r	4a]	1dd
.	.	.	4a	.
2f	1a	.	2a	.
1e	.	2r	2b	1ee
.	2g#	[2e	2b	.
=34	=34	=34	=34	=34
1A	1a	4e]	2.cc	2r
.	.	4e	.	.
.	.	2e	.	2.a
.	.	.	4b	.
1r	1d	2f#	2a	.
.	.	.	.	4a
.	.	2f#	[2d	2a
=35	=35	=35	=35	=35
0r	1G	2.g	2d]	2b
.	.	.	1g	2b
.	.	4f	.	.
.	1c	4e	.	2.cc
.	.	4d	.	.
.	.	2e	2c	.
.	.	.	.	4b
=36	=36	=36	=36	=36
0r	2F	2f	2.cc	2a
.	2c	2.e	.	2g
.	.	.	4b	.
.	1d	.	1a	1f
.	.	4d	.	.
.	.	[2d	.	.
=37	=37	=37	=37	=37
2r	1A	2d]	1a	1e
2.A	.	4c	.	.
.	.	4B	.	.
.	2r	2.c	1e	[1a
4A	.	.	.	.
2A	[2e	.	.	.
.	.	4B	.	.
=38	=38	=38	=38	=38
2c#	4e]	1A	2r	1a]
.	4e	.	.	.
2c#	2e	.	2.a	.
1d	2f#	1r	.	2r
.	.	.	4a	.
.	2f#	.	2a	[2dd
=39	=39	=39	=39	=39
1G	2.g	0r	2b	4dd]
.	.	.	.	4dd
.	.	.	2b	2dd
.	4f	.	.	.
1r	4e	.	2.cc	2ee
.	4d	.	.	.
.	2c	.	.	2ee
.	.	.	4b	.
=40	=40	=40	=40	=40
0r	2.d	0r	4a	2.ff
.	.	.	4g	.
.	.	.	2f	.
.	4c	.	.	4ee
.	2B	.	2g	2dd
.	2A	.	[2a	2cc
=41	=41	=41	=41	=41
1r	1e	2r	2a]	1b
.	.	2.e	2g#	.
2r	2A	.	1a	[1a
.	.	4e	.	.
[2A	[2c	2e	.	.
=42	=42	=42	=42	=42
4A]	4c]	2f	1r	1a]
4A	4c	.	.	.
2A	2c	2f	.	.
2B	2d	2.g	2r	1r
2B	2G	.	[2g	.
.	.	4f	.	.
=43	=43	=43	=43	=43
2.c	1g	4e	2g]	1r
.	.	4d	.	.
.	.	1c	2e	.
4B	.	.	.	.
2A	1r	.	2f	2r
2G	.	2B	2g	[2dd
=44	=44	=44	=44	=44
2F	2r	2A	2a	4dd]
.	.	.	.	4dd
2G	2.G	1d	2b-	2dd
1E	.	.	1g	2ee
.	4G	.	.	.
.	2G	2c	.	2ee
=45	=45	=45	=45	=45
1D	2A	2d	2f	2.ff
.	2A	2.d	1a	.
.	.	.	.	4ee
1r	1B-	.	.	2dd
.	.	4d	.	.
.	.	2d	2g	2dd
=46	=46	=46	=46	=46
2r	1A	2e	[0a	2cc
2A	.	2e	.	1ee
2F	2c	1f	.	.
2D	2d	.	.	[2dd
=47	=47	=47	=47	=47
0A	2e	0e	1a_	2dd]
.	2A	.	.	4cc#
.	.	.	.	4b
.	2a	.	1a_	1cc#
.	2e	.	.	.
=48	=48	=48	=48	=48
0D	0f#	0d	0a]	0dd
=49	=49	=49	=49	=49
1A	0r	1r	0r	0r
2A	.	1e	.	.
2A	.	.	.	.
=50	=50	=50	=50	=50
2G	0r	2e	0r	0r
2A	.	2e	.	.
[1B-	.	2.d	.	.
.	.	4e	.	.
=51	=51	=51	=51	=51
2B-]	0r	1.f	0r	0r
2A	.	.	.	.
2F	.	.	.	.
2G	.	2e	.	.
=52	=52	=52	=52	=52
2.A	0r	4c	1a	0r
.	.	4d	.	.
.	.	2.e	.	.
4G	.	.	.	.
2.F	.	.	2a	.
.	.	4d	.	.
.	.	[2d	2a	.
8E	.	.	.	.
8D	.	.	.	.
=53	=53	=53	=53	=53
1E	0r	2d]	2.g	0r
.	.	2c#	.	.
.	.	.	4a	.
2D	.	2d	2b-	.
[2d	.	[2f	2a	.
=54	=54	=54	=54	=54
4d]	1r	4f]	2f	0r
4c	.	4e	.	.
2B-	.	1d	2g	.
[1A	1e	.	[1a	.
.	.	4c	.	.
.	.	4B	.	.
=55	=55	=55	=55	=55
1A]	2e	2.c	0a]	0r
.	2e	.	.	.
.	.	8d	.	.
.	.	8e	.	.
2r	2d	2f	.	.
2A	2e	2c	.	.
=56	=56	=56	=56	=56
4D	1f	1d	2r	1r
4E	.	.	.	.
4F	.	.	2a	.
4G	.	.	.	.
4A	2e	1c	2a	1ee
4G	.	.	.	.
4A	4c	.	2a	.
4B	4d	.	.	.
=57	=57	=57	=57	=57
1c	4e	0r	2g	2ee
.	4d	.	.	.
.	4e	.	2a	2ee
.	4f	.	.	.
1G	1g	.	[1b-	2dd
.	.	.	.	2ee
=58	=58	=58	=58	=58
1.d	1f	0r	2b-]	1.ff
.	.	.	2a	.
.	2d	.	2f	.
2c	[2e	.	2g	2ee
=59	=59	=59	=59	=59
2A	4e]	1r	2a	2cc
.	4f	.	.	.
2B	2d	.	4g	2dd
.	.	.	4f	.
1c	1g	2r	4e	2.ee
.	.	.	4c	.
.	.	2e	[2cc	.
.	.	.	.	4dd
=60	=60	=60	=60	=60
1A	0r	2e	4cc]	2.cc
.	.	.	4b	.
.	.	2e	1a	.
.	.	.	.	8b
.	.	.	.	8a
1r	.	2d	.	1b
.	.	2e	2g#	.
=61	=61	=61	=61	=61
2r	1r	1f	0a	2a
2A	.	.	.	2cc
2A	1e	2.e	.	2cc
2A	.	.	.	2cc
.	.	4f	.	.
=62	=62	=62	=62	=62
2G	2e	2g	2r	2b
2A	2e	2c	1a	2a
1B-	2.d	1r	.	1dd
.	.	.	2g	.
.	4e	.	.	.
=63	=63	=63	=63	=63
1.A	2f	0r	2a	4cc
.	.	.	.	4b
.	2e	.	2.cc	4a
.	.	.	.	4g
.	2c	.	.	1a
.	.	.	4b	.
2F	2d	.	2a	.
=64	=64	=64	=64	=64
2G	2.e	2r	2g	0r
1A	.	2e	4c	.
.	4d	.	4d	.
.	2c	2e	4e	.
.	.	.	4f	.
2G	2B	2e	4g	.
.	.	.	4e	.
=65	=65	=65	=65	=65
2F	2A	2d	2f	0r
2E	1c	2e	2g	.
1D	.	1f	2a	.
.	2B	.	2d	.
=66	=66	=66	=66	=66
2C	4c	2.e	2g	1ee
.	4d	.	.	.
2c	4e	.	4c	.
.	4f	4d	4d	.
2c	1g	4c	4e	2ee
.	.	4d	4f	.
2c	.	4e	4g	2ee
.	.	4f	4a	.
=67	=67	=67	=67	=67
2B	0r	4g	2b	2dd
.	.	4d	.	.
2A	.	1a	1cc	2ee
1d	.	.	.	1ff
.	.	4g	2b	.
.	.	4f	.	.
=68	=68	=68	=68	=68
0c	2r	1g	2.cc	2ee
.	2e	.	.	4cc
.	.	.	8b	4dd
.	.	.	8a	.
.	2e	2r	1g	4ee
.	.	.	.	4ff
.	2e	2e	.	2gg
=69	=69	=69	=69	=69
2r	2d	2f	1a	2ff
2A	2e	2c	.	1ee
1F	1f	1d	2a	.
.	.	.	2b	2dd
=70	=70	=70	=70	=70
1.A	2e	2c	2.cc	1ee
.	4c	2A	.	.
.	4d	.	4b	.
.	4e	2c	2a	1ee
.	4f	.	.	.
2G#	[2e	2B	[2b	.
=71	=71	=71	=71	=71
1A	2e]	0e	4b]	2cc
.	.	.	4a	.
.	2c	.	1a	2a
1E	1B	.	.	1b
.	.	.	2g#	.
=72	=72	=72	=72	=72
0A	0A	0e	0a	0cc#
==	==	==	==	==
*-	*-	*-	*-	*-
!!!CDT: 1525/^1526/-1594/2/2
!!!OCY: Italia
!!!AGN: Mass (Parody)
!!!AST: renaissance, vocal
!!!ASW: Madrigal 1561 (Palestrina)
!!!PWK: Masses, Book 10
!!!RNB: Cadence finals: D
!!!YOR: Le Opere Complete, v. 27, p. 52
!!!YOO: Rome, Italy: Fratelli Scalera
!!!END: 1992//
!!!EED: John Miller
!!!YEC: Copyright 2000, John Miller
!!!YEN: United States of America
!!!YEM: Rights to all derivative electronic formats reserved.
!!!YEM: Refer to licensing agreement for further details.
!!!YEM: This file must be accompanied by the licensing agreement.
!!!YEM: A copy of the licensing agreement may be found at http://www.music-cog.ohio-state.edu/HumdrumDatabases/Palestrina/license.txt
!!!EMD: converted to Humdrum by Bret Aarden
